X:566
T:Polska efter Olof Nordblad
T:(SvL Hälsingland 566)
R:Polska
B:Svenska Låtar Hälsingland
O:Norrala, Hälsingland
S:Olof Nordblad
M:3/4
L:1/16
K:C
G2GF E2G2 c2e2|d2dc (Bc)dB G4|A2AG F2FE D2DC|B,2B,2 DCB,A, G,4|
GAGF E2G2 c2e2|dedc (Bc)dB G4|e2ec f2fd B2B2|dcBc d4 c4:|
|:e3d c2c2 c2c2|f3e d2d2 d2d2|e3d c2cB c2e2|(de)dc (Bc)BA G4|
e3d c2c2 c2c2|f3e d2d2 d2d2|g2g2 f2f2 e2e2|edcB d4 c4:|

